react-snake-finished/public/icons/mono.svg

<svg width="105" height="89" viewBox="0 0 105 89" fill="none" xmlns="http://www.w3.org/2000/svg">
<path d="M42.6519 36.7076L52.1272 27.2374L61.5922 36.7076L52.1272 46.1829L42.6519 36.7076ZM73.438 36.7076L58.052 21.3171L67.5182 11.8367L92.3897 36.7082L52.1277 76.9713L11.8703 36.7082L36.731 11.8367L46.2062 21.3171L30.8112 36.7082L52.1277 58.0258L73.438 36.7076ZM52.1272 15.386L36.7304 0L0.0222168 36.7076L52.1272 88.8171L104.235 36.7076L67.5126 0L52.1272 15.386Z" fill="#CC314D"/>
</svg>

<?xml version="1.0" encoding="utf-8"?>
<!-- Generator: Adobe Illustrator 28.0.0, SVG Export Plug-In . SVG Version: 6.00 Build 0)  -->
<svg version="1.1" id="Layer_1" xmlns="http://www.w3.org/2000/svg" xmlns:xlink="http://www.w3.org/1999/xlink" x="0px" y="0px"
	 viewBox="0 0 105 89" style="enable-background:new 0 0 105 89;" xml:space="preserve">
<style type="text/css">
	.st0{opacity:0.3;fill:#CC314D;}
</style>
<path class="st0" d="M42.652,36.708l9.475-9.47l9.465,9.47l-9.465,9.475L42.652,36.708z M73.438,36.708l-15.386-15.39l9.466-9.48
	L92.39,36.708L52.128,76.971L11.87,36.708l24.861-24.871l9.475,9.48L30.811,36.708l21.317,21.318L73.438,36.708z M52.127,15.386
	L36.73,0L0.022,36.708l52.105,52.11l52.108-52.11L67.513,0L52.127,15.386z"/>
</svg>
